X:587
T:The black rogue
T:The black joke
T:Michael Mulloy
T:Johnny McGill
T:Shane Glas
T:Sublime was the warning
T:Shandrum boggoon
T:Come under my plaiddie
R:Jig
O:Ireland, Scotland, England
B:Skye Collection p175
B:O'Neill's 915
S:O'Neill's 915
B:Winder (?)
Z:Transcription:Tom Keays, minor arr., chords:Mike Long
M:6/8
L:1/8
K:G
g |\
 "G"dBB BAB | dBB B2g | dBB BAB | "Em/C"GEE E2g |\
"G"dBB BAB | dBB BAG | "C"ABc "G"BAB | "Em"GEE E2 :|
|: d |\
 "G"gfg "D"aga | "C"bge edB | "G"gfg "D"aga | "C"bge e2g/a/|\
"G"bgb "D"afa |"C"gef g2e| "G"dBB BAB | "Em"GEE E2 :|
